!!!OTL: "Sehnsucht" BIN ICH HIER ODER DORT
!!!ARE: Europa, Mitteleuropa, Deutschland, Franken; Lothringen
!!!SCT: Z1146
!!!YEM: Copyright 1995, estate of Helmut Schaffrath.
**kern
*ICvox
*Ivox
*M4/4
*k[b-]
*F:
{8c
8c
=1
4.f
8a
4cc
4a
=2
2a
4g}
{8g
8a
=3
4b-
4g
4cc
4b-
=4
2.a}
{4cc
=5
4dd
4b-
4b-
4dd
=6
4dd
4cc
4cc}
{4a
=7
4cc
4b-
4g
4g
=8
2dd
4cc}
{4cc
=9
4dd
4b-
4b-
4dd
=10
4dd
4cc
4cc}
{4a
=11
4cc
4b-
4g
4b-
=12
2.a}
==
!!!AGN: Liebes - Lied
!!!ONB: ESAC (Essen Associative Code) Database: ZUCCAL
!!!AMT: simple quadruple
!!!AIN: vox
!!!EED: Helmut Schaffrath
!!!EEV: 1.0
*-
